X:184
M:6/8
L:1/8
K:Bb
|:ded ded|e2c cde|ded cdB|ABG F3|ded ded|efg f2e|dcB FBA|B3 B,3:|

